X: 70
T: Boys of Bluehill
M: 4/4
L: 1/8
R: Hornpipe
K: D
FA|BAFA D2FA|BA (3Bcd e2de|faaf egfe|dfed B2dB|
BAFA D2FA|BA (3Bcd e2de|faaf egfe|d2 f2 d2 :|
fg|afdf a2af|gfga b2ag|faaf egfe|dfed B2dB|
BAFA D2FA|BA (3Bcd e2de|faaf egfe|d2 f2 d2 :|
